X:11
T:Bill Harte's Reel  
B:CRE1.110 (Ril Liaim Ui Airt)
F:file ID: cre.1/011bill_h
S:Sonny Brogan
M:C
L:1/8
Q:180
R:reel
K:Am
DEGA BGG2|BGdB ABGE|DEGA Beed|BAAB A2GE|
DEGA BGG2|BGdB ABGE|DEGA Beed|BAAB A2Bd||
eAA2 Bdeg|dGG^F GABd|eAA2 (3B^cd eg|dBGB A2Bd|
eAA2 Bdeg|dGG^F GABd|egg2 ede^f|gedB ABGE||A8||

%%%

